X:2
T:Folding Down the Sheets
O:Trad Appalachian
S:Rayna Gellert http://www.youtube.com/watch?v=TrweiTxfVgQ
S:http://info.therealschoolofmusic.com/Default.aspx?app=LeadgenDownload&shortpath=docs%2ffolding+down+the+sheets-gellert.pdf
R:reel
Z:2011 John Chambers <jc:trillian.mit.edu>
M:2/4
L:1/16
K:D
eg | fedd edcA | [dA]-BA[FD] {E}F2A[AF] | GGBG AGFD | ^D-E2C =D2 :| z2 |
|: [e3A3]g fedd | edef {f}a3f | edcB A2[eA]g | f{g}fec {c}d2-d2 :|
%%text Also played as 32-bar reel, each part 4 times.
